X:16545
T:The Campbells are Comin'
S:222 Popular Scottish Songs with Music (1868)
N:this tune has probably the most complicated history and the most
N:alternate titles of anything in Scottish musical tradition
M:6/8
L:1/8
K:D
D|FAB  AFD |F2F  F2E|FAB AFD |E2E E2
D|FAB  AFD |F>GF def|dBd AFD |F2F F2||
A|d2d  d>ef|A2A  AFD|d2d d>ef|B2B B2
A|A>Bc d>cB|A>Bc def|dBd AFD |F2F F2|]
